!! 00000] TT[WS
!!!OTL: Shao shu
!!!ARE: Asia, China, Shanxi Xieyu
!! Ethnic Group: Han
!! WI, 118
!!!SCT: J0139
!!!YEM: Copyright 1995, estate of Helmut Schaffrath.
**kern
*ICvox
*Ivox
!! Mixed meters:  2/4; 3/4
*M3/4
*k[f#]
*G:
{8a
16a
16dd
16b
16a
16e
16g
=1
4a
16dd
16cc
16dd
16ee
4dd}
=2
*M2/4
{8a
16a
16b
16g
16e
16a
16b
=3
8g
16g
16e
16a
16g
16a
16b
=4
4e
8g
8r}
=5
{8dd
16dd
16dd
8cc
16cc
16a
=6
8dd
8dd
4f#
=7
*M3/4
8a
16a
16b
16a
16g
16a
16b
8g
16g
16g}
=8
*M2/4
{16a
16dd
8f#
8g
8r
=9
8.g
16a
4cc
=10
16g
16r
8cc
16a
16cc
16a
16g}
=11
{16e
16g
16e
16g
16e
16d
16c
16A
=12
8d
16d
16e
16g
16e
16g
16a
=13
8.d
16c
4d}
==
!!!AGN: Xiaodiao. Qingge
!!!ONB: ESAC (Essen Associative Code) Database: CHINA
!!!AMT: irregular
!!!AIN: vox
!!!EED: Helmut Schaffrath
!!!EEV: 1.0
*-
